icons/svg/python.svg

<svg width="24" height="24" viewBox="0 0 24 24" fill="none" xmlns="http://www.w3.org/2000/svg">
<path d="M12 7.75H7.5M12 16.75H16.5M16.5 16.75H18.0215C18.8285 16.75 19.6549 16.5622 20.1516 15.9263C20.6822 15.2472 21.25 14.0905 21.25 12.25C21.25 10.4095 20.6822 9.2528 20.1516 8.57369C19.6549 7.93776 18.8285 7.75 18.0215 7.75H16.5M16.5 16.75V18.2715C16.5 19.0785 16.3122 19.9049 15.6763 20.4016C14.9972 20.9322 13.8405 21.5 12 21.5C10.1595 21.5 9.0028 20.9322 8.32369 20.4016C7.68776 19.9049 7.5 19.0785 7.5 18.2715V16.75M7.5 7.75H5.97845C5.17148 7.75 4.34515 7.93776 3.84835 8.57369C3.31782 9.2528 2.75 10.4095 2.75 12.25C2.75 14.0905 3.31782 15.2472 3.84835 15.9263C4.34515 16.5622 5.17148 16.75 5.97845 16.75H7.5M7.5 7.75V6.22845C7.5 5.42148 7.68776 4.59515 8.32369 4.09835C9.0028 3.56782 10.1595 3 12 3C13.8405 3 14.9972 3.56782 15.6763 4.09835C16.3122 4.59515 16.5 5.42148 16.5 6.22845V7.75M7.5 16.75V14.25C7.5 13.1454 8.39543 12.25 9.5 12.25H14.5C15.6046 12.25 16.5 11.3546 16.5 10.25V7.75" stroke="currentColor" stroke-width="1.5" stroke-linecap="round" stroke-linejoin="round"/>
<path d="M15 18.75C15 19.1642 14.6642 19.5 14.25 19.5C13.8358 19.5 13.5 19.1642 13.5 18.75C13.5 18.3358 13.8358 18 14.25 18C14.6642 18 15 18.3358 15 18.75Z" fill="currentColor"/>
<path d="M8.99994 5.75C8.99994 5.33579 9.33573 5 9.74994 5C10.1642 5 10.4999 5.33579 10.4999 5.75C10.4999 6.16421 10.1642 6.5 9.74994 6.5C9.33573 6.5 8.99994 6.16421 8.99994 5.75Z" fill="currentColor"/>
</svg>

<svg xmlns="http://www.w3.org/2000/svg" width="24" height="24" fill="none" viewBox="0 0 24 24"><path stroke="currentColor" stroke-linecap="round" stroke-linejoin="round" stroke-width="1.5" d="M12 7.75H7.5m4.5 9h4.5m0 0h1.521c.807 0 1.634-.188 2.13-.824.531-.679 1.099-1.835 1.099-3.676 0-1.84-.568-2.997-1.098-3.676-.497-.636-1.324-.824-2.13-.824H16.5m0 9v1.521c0 .807-.188 1.634-.824 2.13-.679.531-1.835 1.099-3.676 1.099-1.84 0-2.997-.568-3.676-1.098-.636-.497-.824-1.324-.824-2.13V16.75m0-9H5.978c-.807 0-1.633.188-2.13.824-.53.679-1.098 1.835-1.098 3.676 0 1.84.568 2.997 1.098 3.676.497.636 1.323.824 2.13.824H7.5m0-9V6.228c0-.807.188-1.633.824-2.13C9.003 3.568 10.159 3 12 3c1.84 0 2.997.568 3.676 1.098.636.497.824 1.323.824 2.13V7.75m-9 9v-2.5a2 2 0 0 1 2-2h5a2 2 0 0 0 2-2v-2.5"/><path fill="currentColor" d="M15 18.75a.75.75 0 1 1-1.5 0 .75.75 0 0 1 1.5 0m-6-13a.75.75 0 1 1 1.5 0 .75.75 0 0 1-1.5 0"/></svg>
